public/Homepage/svg/android.svg

<svg width="58" height="57" viewBox="0 0 58 57" fill="none" xmlns="http://www.w3.org/2000/svg">
<g clip-path="url(#clip0_837_367)">
<path d="M35.8605 5.67687L38.3575 1.51487C38.6415 1.04087 38.4885 0.426873 38.0145 0.142873C37.5395 -0.142127 36.9265 0.0108732 36.6425 0.485873L34.0075 4.87787C32.4385 4.31987 30.7585 3.99987 29.0005 3.99987C27.2425 3.99987 25.5625 4.31987 23.9935 4.87787L21.3585 0.485873C21.0745 0.0108732 20.4605 -0.141127 19.9865 0.142873C19.5125 0.426873 19.3595 1.04087 19.6435 1.51487L22.1405 5.67687C17.3135 8.17187 14.0005 13.2019 14.0005 19.0009C14.0005 19.5539 14.4485 20.0009 15.0005 20.0009H43.0005C43.5525 20.0009 44.0005 19.5539 44.0005 19.0009C43.9995 13.2029 40.6875 8.17287 35.8605 5.67687ZM16.0385 18.0009C16.5505 11.2979 22.1685 6.00087 29.0005 6.00087C35.8325 6.00087 41.4505 11.2979 41.9625 18.0009H16.0385Z" fill="white"/>
<path d="M35.9775 11.3638H34.6595C34.2955 11.3638 34.0005 11.6588 34.0005 12.0228V13.3408C34.0005 13.7048 34.2955 13.9998 34.6595 13.9998H35.9785C36.3425 13.9998 36.6375 13.7048 36.6375 13.3408V12.0228C36.6375 11.6588 36.3415 11.3638 35.9775 11.3638Z" fill="white"/>
<path d="M23.3405 11.3638H22.0215C21.6575 11.3638 21.3625 11.6588 21.3625 12.0228V13.3408C21.3625 13.7048 21.6575 13.9998 22.0215 13.9998H23.3405C23.7045 13.9998 23.9995 13.7048 23.9995 13.3408V12.0228C23.9995 11.6588 23.7045 11.3638 23.3405 11.3638Z" fill="white"/>
<path d="M42.9995 21.001H14.9995C14.4475 21.001 13.9995 21.448 13.9995 22.001V42.172C13.9995 44.835 16.1685 47.001 18.8335 47.001H19.9995V53.007C19.9995 55.209 21.7935 57.001 23.9995 57.001C26.2055 57.001 27.9995 55.209 27.9995 53.007V47.001H29.9995V53.007C29.9995 55.209 31.7935 57.001 33.9995 57.001C36.2055 57.001 37.9995 55.209 37.9995 53.007V47.001H39.1655C41.8315 47.001 43.9995 44.835 43.9995 42.172V22.001C43.9995 21.448 43.5525 21.001 42.9995 21.001ZM41.9995 42.172C41.9995 43.732 40.7285 45.001 39.1655 45.001H36.9995C36.4475 45.001 35.9995 45.448 35.9995 46.001V53.007C35.9995 54.107 35.1025 55.001 33.9995 55.001C32.8965 55.001 31.9995 54.106 31.9995 53.007V46.001C31.9995 45.448 31.5515 45.001 30.9995 45.001H26.9995C26.4475 45.001 25.9995 45.448 25.9995 46.001V53.007C25.9995 54.107 25.1025 55.001 23.9995 55.001C22.8965 55.001 21.9995 54.106 21.9995 53.007V46.001C21.9995 45.448 21.5515 45.001 20.9995 45.001H18.8345C17.2715 45.001 15.9995 43.731 15.9995 42.172V23.001H41.9995V42.172Z" fill="white"/>
<path d="M48.4995 21.001C46.5695 21.001 44.9995 22.573 44.9995 24.505V38.497C44.9995 40.429 46.5695 42.001 48.4995 42.001C50.4295 42.001 51.9995 40.429 51.9995 38.497V24.505C51.9995 22.573 50.4295 21.001 48.4995 21.001Z" fill="#02A738"/>
<path d="M9.49951 21.001C7.56951 21.001 5.99951 22.573 5.99951 24.505V38.497C5.99951 40.429 7.56951 42.001 9.49951 42.001C11.4295 42.001 12.9995 40.429 12.9995 38.497V24.505C12.9995 22.573 11.4295 21.001 9.49951 21.001Z" fill="#02A738"/>
</g>
<defs>
<clipPath id="clip0_837_367">
<rect width="57.001" height="57.001" fill="white" transform="translate(0.499512)"/>
</clipPath>
</defs>
</svg>

<?xml version="1.0" encoding="UTF-8"?>
<svg id="Layer_1" data-name="Layer 1" xmlns="http://www.w3.org/2000/svg" xmlns:xlink="http://www.w3.org/1999/xlink" viewBox="0 0 58 57">
  <defs>
    <style>
      .cls-1 {
        fill: #ff5823;
      }

      .cls-2 {
        fill: #fff;
      }

      .cls-3 {
        fill: none;
      }

      .cls-4 {
        clip-path: url(#clippath);
      }
    </style>
    <clipPath id="clippath">
      <rect class="cls-3" x=".5" width="57" height="57"/>
    </clipPath>
  </defs>
  <g class="cls-4">
    <g>
      <path class="cls-2" d="M35.86,5.68l2.5-4.16c.28-.47.13-1.09-.34-1.37-.47-.29-1.09-.13-1.37.34l-2.64,4.39c-1.57-.56-3.25-.88-5.01-.88s-3.44.32-5.01.88L21.36.49c-.28-.47-.9-.63-1.37-.34-.47.28-.63.9-.34,1.37l2.5,4.16c-4.83,2.5-8.14,7.53-8.14,13.32,0,.55.45,1,1,1h28c.55,0,1-.45,1-1,0-5.8-3.31-10.83-8.14-13.32ZM16.04,18c.51-6.7,6.13-12,12.96-12s12.45,5.3,12.96,12h-25.92Z"/>
      <path class="cls-2" d="M35.98,11.36h-1.32c-.36,0-.66.3-.66.66v1.32c0,.36.3.66.66.66h1.32c.36,0,.66-.3.66-.66v-1.32c0-.36-.3-.66-.66-.66Z"/>
      <path class="cls-2" d="M23.34,11.36h-1.32c-.36,0-.66.3-.66.66v1.32c0,.36.3.66.66.66h1.32c.36,0,.66-.3.66-.66v-1.32c0-.36-.3-.66-.66-.66Z"/>
      <path class="cls-2" d="M43,21H15c-.55,0-1,.45-1,1v20.17c0,2.66,2.17,4.83,4.83,4.83h1.17v6.01c0,2.2,1.79,3.99,4,3.99s4-1.79,4-3.99v-6.01h2v6.01c0,2.2,1.79,3.99,4,3.99s4-1.79,4-3.99v-6.01h1.17c2.67,0,4.83-2.17,4.83-4.83v-20.17c0-.55-.45-1-1-1ZM42,42.17c0,1.56-1.27,2.83-2.83,2.83h-2.17c-.55,0-1,.45-1,1v7.01c0,1.1-.9,1.99-2,1.99s-2-.9-2-1.99v-7.01c0-.55-.45-1-1-1h-4c-.55,0-1,.45-1,1v7.01c0,1.1-.9,1.99-2,1.99s-2-.9-2-1.99v-7.01c0-.55-.45-1-1-1h-2.17c-1.56,0-2.83-1.27-2.83-2.83v-19.17h26v19.17Z"/>
      <path class="cls-1" d="M48.5,21c-1.93,0-3.5,1.57-3.5,3.5v13.99c0,1.93,1.57,3.5,3.5,3.5s3.5-1.57,3.5-3.5v-13.99c0-1.93-1.57-3.5-3.5-3.5Z"/>
      <path class="cls-1" d="M9.5,21c-1.93,0-3.5,1.57-3.5,3.5v13.99c0,1.93,1.57,3.5,3.5,3.5s3.5-1.57,3.5-3.5v-13.99c0-1.93-1.57-3.5-3.5-3.5Z"/>
    </g>
  </g>
</svg>
